public/footer/telegram.svg

<svg width="21" height="18" viewBox="0 0 21 18" fill="none" xmlns="http://www.w3.org/2000/svg">
<path fill-rule="evenodd" clip-rule="evenodd" d="M19.58 0.563164L1.65199 7.35796C0.671985 7.64156 0.699985 8.61076 1.42799 8.84396L5.91999 10.2476L7.63599 15.5224C7.84799 16.0996 8.01599 16.3172 8.37599 16.3224C8.74798 16.3276 8.89199 16.1904 9.28399 15.8456C9.73999 15.4168 10.432 14.7424 11.532 13.674L16.204 17.1296C17.064 17.6044 17.684 17.3584 17.896 16.3296L20.828 1.82476C21.14 0.565164 20.4 0.189164 19.58 0.563164ZM6.62399 9.92516L16.836 3.51116C17.34 3.17356 17.496 3.55116 17.272 3.81076L8.79599 11.4428L8.35999 15.252L6.62399 9.92516Z" fill="white"/>
</svg>

<svg width="21" height="18" fill="none" xmlns="http://www.w3.org/2000/svg"><path fill-rule="evenodd" clip-rule="evenodd" d="M19.58.563 1.652 7.358c-.98.284-.952 1.253-.224 1.486l4.492 1.404 1.716 5.274c.212.578.38.795.74.8.372.006.516-.132.908-.476.456-.43 1.148-1.104 2.248-2.172l4.672 3.456c.86.474 1.48.228 1.692-.8l2.932-14.505C21.14.565 20.4.189 19.58.563ZM6.624 9.925l10.212-6.414c.504-.337.66.04.436.3l-8.476 7.632-.436 3.809-1.736-5.327Z" fill="#fff"/></svg>
